public/instagram.svg

<svg width="48" height="48" viewBox="0 0 48 48" fill="none" xmlns="http://www.w3.org/2000/svg">
<rect width="48" height="48" fill="#323238"/>
<g clip-path="url(#clip0_61385:216)">
<path d="M22.724 35.9999C21.617 35.9999 20.324 35.9939 19.048 35.9209C17.1811 35.9629 15.3729 35.2669 14.016 33.9839C12.7328 32.6275 12.0367 30.8196 12.079 28.9529C12 27.5099 12 26.0509 12 24.6399C12 24.4265 12 24.2132 12 23.9999C12 23.7865 12 23.5732 12 23.3599C12 21.9489 12 20.4899 12.079 19.0479C12.037 17.1809 12.733 15.3728 14.016 14.0159C15.3729 12.7329 17.1811 12.0369 19.048 12.0789C20.328 12.0059 21.617 11.9999 22.724 11.9999H25.277C26.384 11.9999 27.677 12.0059 28.954 12.0789C30.8207 12.0366 32.6286 12.7327 33.985 14.0159C35.268 15.3728 35.964 17.1809 35.922 19.0479C36 20.4899 36 21.9489 36 23.3609C36 23.5742 36 23.7875 36 24.0009C36 24.2142 36 24.4272 36 24.6399C36 26.0509 36 27.5099 35.921 28.9539C35.9633 30.8206 35.2672 32.6285 33.984 33.9849C32.6276 35.2681 30.8197 35.9642 28.953 35.9219C27.672 35.9949 26.383 36.0009 25.276 36.0009L22.724 35.9999Z" fill="white"/>
<path d="M29.6061 18.7885C29.8426 18.9465 30.1206 19.0308 30.405 19.0308L30.406 19.0318C30.7873 19.0313 31.1528 18.8795 31.4223 18.6097C31.6917 18.3399 31.843 17.9741 31.843 17.5928C31.843 17.3084 31.7587 17.0304 31.6007 16.7939C31.4427 16.5575 31.2181 16.3731 30.9553 16.2643C30.6926 16.1555 30.4034 16.127 30.1245 16.1825C29.8456 16.238 29.5893 16.3749 29.3882 16.576C29.1871 16.7771 29.0502 17.0334 28.9947 17.3123C28.9392 17.5913 28.9677 17.8804 29.0765 18.1431C29.1853 18.4059 29.3697 18.6305 29.6061 18.7885Z" fill="#323238"/>
<path fill-rule="evenodd" clip-rule="evenodd" d="M24.0003 30.1556C22.7828 30.1554 21.5927 29.7942 20.5805 29.1176C19.5683 28.4411 18.7794 27.4796 18.3137 26.3547C17.8479 25.2298 17.7261 23.9921 17.9637 22.798C18.2014 21.6039 18.7878 20.5071 19.6487 19.6463C20.5097 18.7854 21.6066 18.1992 22.8007 17.9618C23.9949 17.7243 25.2326 17.8463 26.3574 18.3123C27.4822 18.7782 28.4436 19.5673 29.1199 20.5796C29.7963 21.5919 30.1573 22.7821 30.1573 23.9996C30.1558 25.632 29.5066 27.1972 28.3522 28.3515C27.1979 29.5058 25.6328 30.154 24.0003 30.1556ZM24.0003 20.0001C23.2092 20.0001 22.4358 20.2347 21.778 20.6742C21.1202 21.1137 20.6075 21.7385 20.3048 22.4694C20.002 23.2003 19.9228 24.0045 20.0771 24.7805C20.2315 25.5564 20.6124 26.2691 21.1719 26.8285C21.7313 27.3879 22.444 27.7689 23.2199 27.9232C23.9958 28.0776 24.8001 27.9984 25.531 27.6956C26.2619 27.3929 26.8866 26.8802 27.3262 26.2224C27.7657 25.5646 28.0003 24.7912 28.0003 24.0001C28.0003 22.9392 27.5789 21.9218 26.8287 21.1717C26.0786 20.4215 25.0612 20.0001 24.0003 20.0001Z" fill="#323238"/>
</g>
<defs>
<clipPath id="clip0_61385:216">
<rect width="24" height="24" fill="white" transform="translate(12 11.9999)"/>
</clipPath>
</defs>
</svg>

<?xml version="1.0" encoding="UTF-8" standalone="no"?><!DOCTYPE svg PUBLIC "-//W3C//DTD SVG 1.1//EN" "http://www.w3.org/Graphics/SVG/1.1/DTD/svg11.dtd"><svg width="48" height="48" viewBox="0 0 48 48" version="1.1" xmlns="http://www.w3.org/2000/svg" xmlns:xlink="http://www.w3.org/1999/xlink" xml:space="preserve" xmlns:serif="http://www.serif.com/" style="fill-rule:evenodd;clip-rule:evenodd;stroke-linejoin:round;stroke-miterlimit:2;"><rect x="0" y="0" width="48" height="48" style="fill:#323238;"/><g><path d="M22.724,36c-1.107,-0 -2.4,-0.006 -3.676,-0.079c-1.867,0.042 -3.675,-0.654 -5.032,-1.937c-1.283,-1.357 -1.979,-3.164 -1.937,-5.031c-0.079,-1.443 -0.079,-2.902 -0.079,-4.313l-0,-1.28c-0,-1.411 -0,-2.87 0.079,-4.312c-0.042,-1.867 0.654,-3.675 1.937,-5.032c1.357,-1.283 3.165,-1.979 5.032,-1.937c1.28,-0.073 2.569,-0.079 3.676,-0.079l2.553,-0c1.107,-0 2.4,0.006 3.677,0.079c1.867,-0.042 3.675,0.654 5.031,1.937c1.283,1.357 1.979,3.165 1.937,5.032c0.078,1.442 0.078,2.901 0.078,4.313l-0,1.279c-0,1.411 -0,2.87 -0.079,4.314c0.042,1.867 -0.654,3.675 -1.937,5.031c-1.356,1.283 -3.164,1.979 -5.031,1.937c-1.281,0.073 -2.57,0.079 -3.677,0.079l-2.552,-0.001Z" style="fill:#fff;fill-rule:nonzero;"/><path d="M29.606,18.789c0.237,0.157 0.515,0.242 0.799,0.242l0.001,0.001c0.381,-0.001 0.747,-0.153 1.016,-0.422c0.27,-0.27 0.421,-0.636 0.421,-1.017c-0,-0.285 -0.084,-0.563 -0.242,-0.799c-0.158,-0.237 -0.383,-0.421 -0.646,-0.53c-0.262,-0.109 -0.552,-0.137 -0.831,-0.082c-0.278,0.056 -0.535,0.193 -0.736,0.394c-0.201,0.201 -0.338,0.457 -0.393,0.736c-0.056,0.279 -0.027,0.568 0.081,0.831c0.109,0.263 0.294,0.488 0.53,0.645Z" style="fill:#323238;fill-rule:nonzero;"/><path d="M24,30.156c-1.217,-0.001 -2.407,-0.362 -3.419,-1.038c-1.013,-0.677 -1.802,-1.638 -2.267,-2.763c-0.466,-1.125 -0.588,-2.363 -0.35,-3.557c0.237,-1.194 0.824,-2.291 1.685,-3.152c0.861,-0.861 1.958,-1.447 3.152,-1.684c1.194,-0.238 2.432,-0.116 3.556,0.35c1.125,0.466 2.087,1.255 2.763,2.268c0.676,1.012 1.037,2.202 1.037,3.42c-0.001,1.632 -0.65,3.197 -1.805,4.351c-1.154,1.155 -2.719,1.803 -4.352,1.805Zm0,-10.156c-0.791,0 -1.564,0.235 -2.222,0.674c-0.658,0.44 -1.17,1.064 -1.473,1.795c-0.303,0.731 -0.382,1.535 -0.228,2.311c0.155,0.776 0.535,1.489 1.095,2.048c0.559,0.56 1.272,0.941 2.048,1.095c0.776,0.155 1.58,0.075 2.311,-0.227c0.731,-0.303 1.356,-0.816 1.795,-1.474c0.44,-0.657 0.674,-1.431 0.674,-2.222c0,-1.061 -0.421,-2.078 -1.171,-2.828c-0.75,-0.751 -1.768,-1.172 -2.829,-1.172Z" style="fill:#323238;"/></g></svg>
